!!!COM: Joseph (Maurice) Ravel
!!!OTL: [T287_Rav-w35p53-54h29m1-h30m1]
**kern	**dynam	**kern	**dynam	**kern	**dynam	**kern	**dynam	**kern	**dynam
*grp:A	*grp:A	*grp:A	*grp:A	*grp:B	*grp:B	*grp:B	*grp:B	*grp:B	*grp:B
*part4	*part4	*part3	*part3	*part2	*part2	*part2	*part2	*part1	*part1
*staff5	*staff5	*staff4	*staff4	*staff3	*staff3	*staff2	*staff2	*staff1	*staff1
*I"Violoncello	*I"Violoncello	*I"Viola	*I"Viola	*I"Harp	*I"Harp	*I"Harp	*I"Harp	*I"Bassoon	*I"Bassoon
*I'Vc.	*	*I'Vla.	*	*I'Hp.	*	*	*	*I'Bsn.	*
*clefF4	*	*clefC3	*	*clefF4	*	*clefG2	*	*clefC4	*
*k[]	*	*k[]	*	*k[]	*	*k[]	*	*k[]	*
*C:	*	*C:	*	*C:	*	*C:	*	*C:	*
*M6/8	*	*M6/8	*	*M2/4	*	*M2/4	*	*M2/4	*
!!LO:REH:t=29
=287	=287	=287	=287	=287	=287	=287	=287	=287	=287
!	!LO:DY:ed=brack	!	!LO:DY:ed=brack	!	!	!	!	!LO:TX:t=[[quarter-dot]=138]	!LO:DY:ed=brack
*Xtuplet	*	*Xtuplet	*	*	*	*	*	*	*
12ryy	4ryy	12ryy	4ryy	2r	.	2r	.	8r	p
12ryy	.	12ryy	.	.	.	.	.	.	.
.	.	.	.	.	.	.	.	([4.g^	.
12ryy	.	12ryy	.	.	.	.	.	.	.
12ryy	.	12ryy	.	.	.	.	.	.	.
12ryy	.	12ryy	.	.	.	.	.	.	.
12ryy	.	12ryy	.	.	.	.	.	.	.
=288	=288	=288	=288	=288	=288	=288	=288	=288	=288
12ryy	.	12ryy	.	2r	.	2r	.	4.g]	.
12ryy	.	12ryy	.	.	.	.	.	.	.
12ryy	.	12ryy	.	.	.	.	.	.	.
12ryy	.	12ryy	.	.	.	.	.	.	.
12ryy	.	12ryy	.	.	.	.	.	.	.
.	.	.	.	.	.	.	.	[8b-X	.
12ryy	.	12ryy	.	.	.	.	.	.	.
=289	=289	=289	=289	=289	=289	=289	=289	=289	=289
12ryy	.	12ryy	.	2r	.	2r	.	4b-X]	.
12ryy	.	12ryy	.	.	.	.	.	.	.
12ryy	.	12ryy	.	.	.	.	.	.	.
12ryy	.	12ryy	.	.	.	.	.	[4a	.
12ryy	.	12ryy	.	.	.	.	.	.	.
12ryy	.	12ryy	.	.	.	.	.	.	.
=290	=290	=290	=290	=290	=290	=290	=290	=290	=290
12ryy	.	12ryy	.	2r	.	2r	.	8a]	.
12ryy	.	12ryy	.	.	.	.	.	.	.
.	.	.	.	.	.	.	.	4.g)	.
12ryy	.	12ryy	.	.	.	.	.	.	.
12ryy	.	12ryy	.	.	.	.	.	.	.
12ryy	.	12ryy	.	.	.	.	.	.	.
12ryy	.	12ryy	.	.	.	.	.	.	.
!!linebreak:original
=291	=291	=291	=291	=291	=291	=291	=291	=291	=291
12ryy	.	12ryy	.	2r	.	2r	.	(4.b-X	.
12ryy	.	12ryy	.	.	.	.	.	.	.
12ryy	.	12ryy	.	.	.	.	.	.	.
12ryy	.	12ryy	.	.	.	.	.	.	.
12ryy	.	12ryy	.	.	.	.	.	.	.
.	.	.	.	.	.	.	.	[8a	.
12ryy	.	12ryy	.	.	.	.	.	.	.
=292	=292	=292	=292	=292	=292	=292	=292	=292	=292
12ryy	.	12ryy	.	2r	.	2r	.	4a]	.
12ryy	.	12ryy	.	.	.	.	.	.	.
12ryy	.	12ryy	.	.	.	.	.	.	.
12ryy	.	12ryy	.	.	.	.	.	[4g	.
12ryy	.	12ryy	.	.	.	.	.	.	.
12ryy	.	12ryy	.	.	.	.	.	.	.
=293	=293	=293	=293	=293	=293	=293	=293	=293	=293
12ryy	.	12ryy	.	2r	.	2r	.	8g])	.
12ryy	.	12ryy	.	.	.	.	.	.	.
.	.	.	.	.	.	.	.	(4.b-X^	.
12ryy	.	12ryy	.	.	.	.	.	.	.
12ryy	.	12ryy	.	.	.	.	.	.	.
12ryy	.	12ryy	.	.	.	.	.	.	.
12ryy	.	12ryy	.	.	.	.	.	.	.
=294	=294	=294	=294	=294	=294	=294	=294	=294	=294
12ryy	.	12ryy	.	2r	.	2r	.	4.b-X~	.
12ryy	.	12ryy	.	.	.	.	.	.	.
12ryy	.	12ryy	.	.	.	.	.	.	.
12ryy	.	12ryy	.	.	.	.	.	.	.
12ryy	.	12ryy	.	.	.	.	.	.	.
.	.	.	.	.	.	.	.	[8a	.
12ryy	.	12ryy	.	.	.	.	.	.	.
!!pagebreak:original
=295	=295	=295	=295	=295	=295	=295	=295	=295	=295
12ryy	.	12ryy	.	2r	.	2r	.	2a_	.
12ryy	.	12ryy	.	.	.	.	.	.	.
12ryy	.	12ryy	.	.	.	.	.	.	.
12ryy	.	12ryy	.	.	.	.	.	.	.
12ryy	.	12ryy	.	.	.	.	.	.	.
12ryy	.	12ryy	.	.	.	.	.	.	.
=296	=296	=296	=296	=296	=296	=296	=296	=296	=296
12ryy	.	12ryy	.	2r	.	2r	.	8a]	.
12ryy	.	12ryy	.	.	.	.	.	.	.
.	.	.	.	.	.	.	.	[4.g	.
12ryy	.	12ryy	.	.	.	.	.	.	.
12ryy	.	12ryy	.	.	.	.	.	.	.
12ryy	.	12ryy	.	.	.	.	.	.	.
12ryy	.	12ryy	.	.	.	.	.	.	.
=297	=297	=297	=297	=297	=297	=297	=297	=297	=297
12ryy	.	12ryy	.	2r	.	2r	.	4.g])	.
12ryy	.	12ryy	.	.	.	.	.	.	.
12ryy	.	12ryy	.	.	.	.	.	.	.
12ryy	.	12ryy	.	.	.	.	.	.	.
12ryy	.	12ryy	.	.	.	.	.	.	.
.	.	.	.	.	.	.	.	([8e-X	.
12ryy	.	12ryy	.	.	.	.	.	.	.
=298	=298	=298	=298	=298	=298	=298	=298	=298	=298
12ryy	.	12ryy	.	2r	.	2r	.	2e-X_	.
12ryy	.	12ryy	.	.	.	.	.	.	.
12ryy	.	12ryy	.	.	.	.	.	.	.
12ryy	.	12ryy	.	.	.	.	.	.	.
12ryy	.	12ryy	.	.	.	.	.	.	.
12ryy	.	12ryy	.	.	.	.	.	.	.
!!linebreak:original
=299	=299	=299	=299	=299	=299	=299	=299	=299	=299
12ryy	.	12ryy	.	2r	.	2r	.	8e-X]	.
12ryy	.	12ryy	.	.	.	.	.	.	.
.	.	.	.	.	.	.	.	4.d)	.
12ryy	.	12ryy	.	.	.	.	.	.	.
12ryy	.	12ryy	.	.	.	.	.	.	.
12ryy	.	12ryy	.	.	.	.	.	.	.
12ryy	.	12ryy	.	.	.	.	.	.	.
=300	=300	=300	=300	=300	=300	=300	=300	=300	=300
12ryy	.	12ryy	.	2r	.	2r	.	(>4.G	.
12ryy	.	12ryy	.	.	.	.	.	.	.
12ryy	.	12ryy	.	.	.	.	.	.	.
12ryy	.	12ryy	.	.	.	.	.	.	.
12ryy	.	12ryy	.	.	.	.	.	.	.
.	.	.	.	.	.	.	.	[8B-X	.
12ryy	.	12ryy	.	.	.	.	.	.	.
=301	=301	=301	=301	=301	=301	=301	=301	=301	=301
12ryy	.	12ryy	.	2r	.	2r	.	4B-X]	.
12ryy	.	12ryy	.	.	.	.	.	.	.
12ryy	.	12ryy	.	.	.	.	.	.	.
12ryy	.	12ryy	.	.	.	.	.	[4c	.
12ryy	.	12ryy	.	.	.	.	.	.	.
12ryy	.	12ryy	.	.	.	.	.	.	.
*	*	*	*	*clefG2	*	*	*	*	*
!!LO:REH:t=30
=302	=302	=302	=302	=302	=302	=302	=302	=302	=302
12ryy	.	12ryy	4ryy	(>32GNLLL	p	2ryy	.	8c]	.
.	.	.	.	32A#XN	.	.	.	.	.
.	.	.	.	32B-XN	.	.	.	.	.
12ryy	.	12ryy	.	.	.	.	.	.	.
.	.	.	.	32cN	.	.	.	.	.
.	.	.	.	32dN	.	.	.	[4.d)	.
!	!	!	!	!LO:TX:t=P:problem:there should be a line extending from the F# to the end of the measure, indicating duration and range of the Harp gliss.	!	!	!	!	!
.	.	.	.	32f#XNJJJ	.	.	.	.	.
12ryy	.	12ryy	.	.	.	.	.	.	.
.	.	.	.	16ryy	.	.	.	.	.
12ryy	.	12ryy	.	4ryy	.	.	.	.	.
12ryy	.	12ryy	.	.	.	.	.	.	.
12ryy	.	12ryy	.	.	.	.	.	.	.
=	=	=	=	=	=	=	=	=	=
*-	*-	*-	*-	*-	*-	*-	*-	*-	*-
!!!system-decoration: [(s1)][({(s2,s3)})][(s4,s5)]
!!!RDF**kern: > = above
!!!RDF**kern: < = below
!!!RDF**kern: N = cue sized
!!!EED: Daniel Wright
!!!EEV: 2021/07/13
!!!EED2: Gabriella Vici
!!!EEV2: 2022/01/27
